X: 1168
T: İstanbul`da Boğaziçi`nde
C: Şekip Ayhan Özışık
O: Turkey
F: http://compmusic.upf.edu/node/140
N: hicaz--sarki--duyek--istanbulda_bogazicinde--sekip_ayhan_ozisik
N: makam= hicaz
N: form= sarki
N: usul= duyek = 8/4
M: 8/4
L: 1/16
K: C _7/8B ^f ^c 
Q: 1/4=120
%%MIDI tuningsystem comma53
A2 B2 A2 G2 A2 B2 A2 G2  | Ac2B A2 G2 Ac2B A2 G2  | \
w:  ARANAĞME  |   | 
AB cd c2 dB A8  | 
w:   | 
A2 B2 A2 G2 A2 B2 A2 G2  | Ac2B A2 G2 Ac2B A2 G2  | \
w:  ARANAĞME  |   | 
AB cd c2 dB A8  | 
w:   | 
A2 B2 A2 G2 A2 B2 A2 G2  | Ac2B A2 G2 Ac2B A2 G2  | \
w:  İs tan bul da  SAZ  |  Bo ğaz i çin de   SAZ  | 
A3B A2 G2 A2 cB A4  | 
w:  Bir  fa kir  Or han  Ve li yim    | 
AB cd c2 dB A8  | AB2A G3/2F/ G2 AB2A G3/2F/ G2  | \
w:  SAZ  |  Ve li nin  oğ lu yum   SAZ  | 
A2 B2 c4 A2 B2 c4  | 
w:  Ta rif siz  SAZ  | 
dd2c cB2c A8  | dd2c cB2c A8  | AB cd e=f de cd Bc AB G2  | 
w:  ke der ler  i çin de  yim    |  SAZ  |  U ru me li hi sa rı na  o tur *  mu şum    | 
AB cd e=f de cd Bc AB G2  | FG FE FG A2 BA Bc BA3  | 
w:  SAZ  |  O tur muş  da  bir  tür kü  tut *  tur *  mu şum    | 
FG FE FG A2 BA Bc BA3  | z36  | A3agfede fgagfedc2 BcBAG2A2e2A2e2e2A2  | 
w:  SAZ  |  |   | 
efgagfede fgagfedc2 BcBAG2A2B cdefga4  | 
w:   | 
f2g2aa3g2=c'4_1/4bag3/2f/ ga(3bag(3fede4A2BAA4  | 
w:  İs tan bu lun  mer mer  *  *  taş *  *  *  la *  *  *  *  *  rı   SAZ  | 
f2g2aa3g2=c'4_1/4bag3/2f/ ga(3bag(3fede4e2dee4  | 
w:  İs tan bu lun  mer mer  *  *  taş *  *  *  la *  *  *  *  *  rı   SAZ  | 
fgaaaaa2g feda4g3=fe3dedc dc8  | 
w:  Ba şı ma  da  ko nu yor  ko nu yor  a man  mar tı  kuş *  la *  *  *  rı    | 
e3fgfg2f g3e2f2d2 e2dcBdcBB AA8  | \
w:  Göz le rim *  den  bo şa nır  hic ran  yaş la *  *  *  *  *  *  *  rı    | 
A2B2c4A2BAGFG2ee2ag=fedcBA4A2BABc  | 
w:  E dâ lım  SAZ *  *  *  *  *  se nin  yü zün *  *  *  den  *  *  bu  ha  | 
A8e2f2g4ee2agfedcBA4A2BABc  | A3agfede fgagfedc2 BcBAG2A2e2A2e2e2A2  | 
w:  lim   E dâ lım  se nin  yü zün *  *  *  den  *  *  bu  ha  |  lim   SAZ  | 
efgagfede fgagfedc2 BcBAG2A2B cdefga4  | 
w:   | 
f2g2aa3g3=c'_1/4b2a2g3/2f/ ga(3bag(3fede4A2BAA4  | 
w:  İs tan bu lun  or ta  ye ri  si *  *  *  ne *  *  *  *  *  ma   SAZ  | 
f2g2aa3g3=c'_1/4b2a2g3/2f/ ga(3bag(3fede4e2fee4  | 
w:  İs tan bu lun  or ta  ye ri  si *  *  *  ne *  *  *  *  *  ma   SAZ  | 
fg3aa3g2f2ea3g=f3e2ededc dc8  | e3fgg3f g3e2f2de3dcBdcBB AA8  | 
w:  Ga rip li ğim  mah zun lu ğum  du yur ma yın  *  a *  na *  ma    |  El  ko nu şur  gö rü şür müş  ba na  *  *  *  *  *  *  *  *  ne    | 
A2B2c4A2BAGFG2e3ag=fedcBA6BABc  | 
w:  Sev dâ lım  SAZ *  *  *  *  *  boy nu na  *  *  *  ve *  bâ  | 
A8e2f2g4e3ag=fedcBA6BABc  | z16  | A16  | \
w:  lim   Sev dâ lım  boy nu na  *  *  *  ve *  bâ  |  |  lim    | 
A2 B2 A2 G2 A2 B2 A2 G2  | 
w:  İs tan bul da  SAZ  | 
Ac2B A2 G2 Ac2B A4  | A3B A2 G2 A3c B4  | \
w:  Bo ğa zi çin de yim   SAZ  |  Bir  ga rip  Or han  Ve li    | 
A3B A2 G2 A3c B4  | 
w:  SAZ  | 
AB2A G3/2F/ G2 AB2A G3/2F/ G2  | A2 B2 c4 A2 B2 c4  | \
w:  Ve li nin  oğ *  lu   SAZ  |  Ta rif siz  SAZ  | 
dd2c cB2c A8  | 
w:  ke der ler  i çin de yim    | 
|


